brandFactory_export/1.Light/Datos compartidos_1Light.svg

<?xml version="1.0" encoding="UTF-8"?>
<svg width="24px" height="24px" viewBox="0 0 24 24" version="1.1" xmlns="http://www.w3.org/2000/svg" xmlns:xlink="http://www.w3.org/1999/xlink">
    <title>1.Light/Datos compartidos_1Light</title>
    <g id="Symbols" stroke="none" stroke-width="1" fill="none" fill-rule="evenodd">
        <g id="1.Light/Datos-compartidos_1Light" fill="#5CB615" fill-rule="nonzero">
            <path d="M23.2773109,19.7983193 C23.4621849,19.7983193 23.6134454,19.9495798 23.6134454,20.1344538 C23.6134454,20.3193277 23.4621849,20.4705882 23.2773109,20.4705882 L0.336134454,20.4705882 C0.151260505,20.4705882 3.06808801e-10,20.3193277 3.06808801e-10,20.1344538 C3.06808801e-10,19.9495798 0.151260505,19.7983193 0.336134454,19.7983193 L23.2773109,19.7983193 Z M20.010084,4.02689076 C21.2268908,4.02689076 22.1512605,4.37983193 22.7596639,5.07563025 C23.3310924,5.73109244 23.6235294,6.69915966 23.6235294,7.95294118 L23.6235294,13.8789916 C23.6235294,15.1327731 23.3344538,16.1008403 22.7596639,16.7563025 C22.1512605,17.4554622 21.2268908,17.8084034 20.010084,17.8084034 L3.62352941,17.8084034 C2.40672269,17.8084034 1.48235294,17.4554622 0.87394958,16.7596639 C0.299159664,16.1008403 0.0100840339,15.1327731 0.0100840339,13.8789916 L0.0100840339,7.95294118 C0.0100840339,6.69915966 0.299159664,5.73109244 0.87394958,5.07563025 C1.48235294,4.37983193 2.40672269,4.02689076 3.62352941,4.02689076 L20.010084,4.02689076 Z M20.010084,4.69915966 L3.62352941,4.69915966 C1.61680672,4.69915966 0.682352941,5.73445378 0.682352941,7.95630252 L0.682352941,13.8823529 C0.682352941,16.1042017 1.61680672,17.1394958 3.62352941,17.1394958 L20.010084,17.1394958 C22.0168067,17.1394958 22.9512605,16.1042017 22.9512605,13.8823529 L22.9512605,7.95294118 C22.9512605,5.73109244 22.0168067,4.69915966 20.010084,4.69915966 Z M14.4571429,6.86386555 C15.307563,6.86386555 15.8588235,7.31092437 15.8521008,8.27226891 C15.8521008,8.73277311 15.7243697,9.07563025 15.4991597,9.30756303 C15.2571429,9.55966387 14.8941176,9.68067227 14.4537815,9.68067227 C14.0134454,9.68067227 13.6537815,9.55966387 13.4084034,9.30756303 C13.3717794,9.2698458 13.3377333,9.22919511 13.3063953,9.18558202 L10.5416739,10.5676575 C10.5595247,10.6756752 10.5685188,10.7922887 10.5680825,10.9176471 C10.5680825,11.0450797 10.5583002,11.1635033 10.5393772,11.2730605 L13.3014431,12.6521034 C13.5415516,12.3133174 13.9451252,12.1512605 14.4571429,12.1512605 C15.307563,12.1512605 15.8588235,12.5983193 15.8521008,13.5596639 C15.8521008,14.0201681 15.7243697,14.3630252 15.4991597,14.594958 C15.2571429,14.8470588 14.8941176,14.9680672 14.4537815,14.9680672 C14.0134454,14.9680672 13.6537815,14.8470588 13.4084034,14.594958 C13.1831933,14.3630252 13.0554622,14.0201681 13.0554622,13.5596639 C13.0554622,13.4641904 13.0608992,13.3737893 13.0715264,13.2883947 L10.27,11.8888908 L10.2151261,11.9529412 C10.0033613,12.1735294 9.69894958,12.29375 9.33116465,12.3203585 L9.1697479,12.3260504 C8.72941176,12.3260504 8.3697479,12.205042 8.12436975,11.9529412 C7.89915966,11.7210084 7.77142857,11.3781513 7.77142857,10.9176471 C7.77142857,9.95630252 8.32268908,9.5092437 9.17310924,9.5092437 C9.64863204,9.5092437 10.0309344,9.65013371 10.2742283,9.94380741 L13.0723232,8.548782 C13.061178,8.46183308 13.0554622,8.36968326 13.0554622,8.27226891 C13.0554622,7.31092437 13.6067227,6.86386555 14.4571429,6.86386555 Z" id="Datos-compartidos_1Light"></path>
        </g>
    </g>
</svg>

<svg width="24" height="24" viewBox="0 0 24 24" xmlns="http://www.w3.org/2000/svg"><path d="M23.277 19.798c.185 0 .336.152.336.336a.337.337 0 01-.336.337H.337A.337.337 0 010 20.134c0-.184.151-.336.336-.336h22.941zM20.01 4.027c1.217 0 2.141.353 2.75 1.049.571.655.864 1.623.864 2.877v5.926c0 1.254-.29 2.222-.864 2.877-.609.7-1.533 1.052-2.75 1.052H3.624c-1.217 0-2.142-.353-2.75-1.048C.299 16.1.01 15.133.01 13.879V7.953c0-1.254.29-2.222.864-2.877.608-.696 1.533-1.05 2.75-1.05H20.01zm0 .672H3.624C1.617 4.7.682 5.734.682 7.956v5.926c0 2.222.935 3.257 2.942 3.257H20.01c2.007 0 2.941-1.035 2.941-3.257v-5.93c0-2.22-.934-3.253-2.94-3.253zm-5.553 2.165c.85 0 1.402.447 1.395 1.408 0 .46-.128.804-.353 1.036-.242.252-.605.373-1.045.373-.44 0-.8-.121-1.046-.373a1.077 1.077 0 01-.102-.122l-2.764 1.382c.018.108.027.224.026.35 0 .127-.01.246-.029.355l2.762 1.38c.24-.34.644-.502 1.156-.502.85 0 1.402.447 1.395 1.409 0 .46-.128.803-.353 1.035-.242.252-.605.373-1.045.373-.44 0-.8-.12-1.046-.373-.225-.232-.353-.575-.353-1.035 0-.096.006-.186.017-.272l-2.802-1.4-.055.065c-.212.22-.516.34-.884.367l-.161.006c-.44 0-.8-.121-1.046-.373-.225-.232-.353-.575-.353-1.035 0-.962.552-1.409 1.402-1.409.476 0 .858.141 1.101.435l2.798-1.395a2.176 2.176 0 01-.017-.277c0-.961.552-1.408 1.402-1.408z" fill="#5CB615" fill-rule="nonzero"/></svg>
